X: 1
T: Garoun 2  [Gm]
T: Springtime
O:Armenia
S:Deborah Jones, VIFD Book; Tom Pixton, Pinewoods Intl. Coll.
M:2/4
L:1/16
P: (ABCD)x2
%Q:1/4=160
K:Gm
P: A instr
|: "Gm"G2GD G2A2 | "(Cm)"BABc A2G2 | "D7"^FGF=E F2G2 | A2BA "Gm"G2G2 \
|  "Gm"G2GD G2B2 | "(Cm)"d2d2 cBAG | "D7"^FGF=E F2G2 | A2BA "Gm"G4 :|
P: B vocal
|: "Gm"d2d2 d2d2 | d2d2 ed3 | "Cm"c4 "(Gm)"B4 | "Cm"A6 z2 \
|  "D7"c2c2 c2c2 | c2c2 B2A2 | "Gm"B4 "(D7)"c4 | "Gm"d6 z2 :|
P: C
|: "Gm"B2B2 B2B2 | B2B2 A2B2 | "Cm"c4 "(Gm)"B4 | "Cm"A6z2 \
|  "D7"A2A2 A2A2 | c2c2 B2A2 | "Gm"BAG2 "D7"AG^F2 | "Gm"G6 z2 :|
P: D chorus
|: "Gm"G2G2 G2A2 | "Cm"B2cB A2G2 | "D7"^F2F2 F2G2 | A2BA "Gm"G4 \
|  "Gm"G2G2 G2B2 | "Cm"d2d2 c2B2 | "D7"A3G ^F2G2 | "Gm"A2BA G4 :|

%%sep 1 1 500

